X:1
T: Highland Time
C:William Marshall
R:Reel
Q: 232
K:Bb
M:4/4
L:1/8
F|B2 Bc B2 d2|F2 B2 GF ED|B2 BF B2 d2|c2 C2 C2 A2|B2 Bc B2 d2|F2 B2 GF ED|E2 g2 f2 fe|d2 B2 B2 f2|
B2 Bc B2 d2|F2 B2 GF ED|B2 BF B2 d2|c2 C2 C2 A2|B2 Bc B2 d2|F2 B2 GF ED|E2 g2 f2 fe|d2 B2 B2 f2|
d2 f2 ed cB|b2 B2 e2 g2|f2 fg ed cB|d2 c2 c2 de|f2 B2 d2 B2|g2 B2 e2 g2|F2 B2 c2 Bc|d2 B2 B2 d2|
f2 ga b2 B2|g2 B2 f2 B2|e2 dc d2 cB|A2 c2 c2 d2|B2 F2 GA B2|F2 B2 GF ED|E2 g2 f2 fe|d2 B2 B3||
